X:175
T: Flaherty's [HP]
T: Cornph\'iopa an Fhlaitheartaigh
S: B.Breathnach:"Ceol Rince na hEireann" III/224
Z: B.Black
L: 1/8
M: 4/4
R: hornpipe
K: D
dB|AF (3DFD A,DFA|dced BcdB|AF (3DFD A,DFA|BAGF EA,CE|
AF (3DFD A,DFA|dced BcdB|AFdB AGFE|1 (3DED CE D2 :|2\
(3DED CE D3 ||
c|BABc dcdf|bagf edcd|cEEF GABc|(3edc (3dcB AGFG|
AF (3DFD A,DFA|dced Bc (3dcB|AFdB AGFE|(3DED CE D3 :|
